docs/.gitbook/assets/icon-align-left-16@light.svg

<svg width="32" height="32" viewBox="0 0 16 16" fill="none" xmlns="http://www.w3.org/2000/svg">
<rect x="0" y="0" width="16" height="16" fill="#fff"/>
<path fill-rule="evenodd" clip-rule="evenodd" d="M1.75 1C2.16421 1 2.5 1.33579 2.5 1.75V14.25C2.5 14.6642 2.16421 15 1.75 15C1.33579 15 1 14.6642 1 14.25V1.75C1 1.33579 1.33579 1 1.75 1ZM4 4.75C4 3.7835 4.7835 3 5.75 3H8.25C9.2165 3 10 3.7835 10 4.75V5.25C10 6.2165 9.2165 7 8.25 7H5.75C4.7835 7 4 6.2165 4 5.25V4.75ZM5.75 4.5C5.61193 4.5 5.5 4.61193 5.5 4.75V5.25C5.5 5.38807 5.61193 5.5 5.75 5.5H8.25C8.38807 5.5 8.5 5.38807 8.5 5.25V4.75C8.5 4.61193 8.38807 4.5 8.25 4.5H5.75ZM4 10.75C4 9.7835 4.7835 9 5.75 9H13.25C14.2165 9 15 9.7835 15 10.75V11.25C15 12.2165 14.2165 13 13.25 13H5.75C4.7835 13 4 12.2165 4 11.25V10.75ZM5.75 10.5C5.61193 10.5 5.5 10.6119 5.5 10.75V11.25C5.5 11.3881 5.61193 11.5 5.75 11.5H13.25C13.3881 11.5 13.5 11.3881 13.5 11.25V10.75C13.5 10.6119 13.3881 10.5 13.25 10.5H5.75Z" fill="#000"/>
</svg>

<svg xmlns="http://www.w3.org/2000/svg" width="32" height="32" fill="none" viewBox="0 0 16 16"><path fill="#fff" d="M0 0h16v16H0z"/><path fill="#000" fill-rule="evenodd" d="M1.75 1a.75.75 0 0 1 .75.75v12.5a.75.75 0 0 1-1.5 0V1.75A.75.75 0 0 1 1.75 1M4 4.75C4 3.784 4.784 3 5.75 3h2.5C9.216 3 10 3.784 10 4.75v.5A1.75 1.75 0 0 1 8.25 7h-2.5A1.75 1.75 0 0 1 4 5.25zm1.75-.25a.25.25 0 0 0-.25.25v.5c0 .138.112.25.25.25h2.5a.25.25 0 0 0 .25-.25v-.5a.25.25 0 0 0-.25-.25zM4 10.75C4 9.784 4.784 9 5.75 9h7.5c.966 0 1.75.784 1.75 1.75v.5A1.75 1.75 0 0 1 13.25 13h-7.5A1.75 1.75 0 0 1 4 11.25zm1.75-.25a.25.25 0 0 0-.25.25v.5c0 .138.112.25.25.25h7.5a.25.25 0 0 0 .25-.25v-.5a.25.25 0 0 0-.25-.25z" clip-rule="evenodd"/></svg>
